packages/ui-icons/svg/Solid/ms-ppt.svg

<svg viewBox="0 0 1920 1920" version="1.1" xmlns="http://www.w3.org/2000/svg">
    <path d="M677.647059,733.705882 L677.647059,846.647059 L338.823529,846.647059 L338.823529,733.705882 L677.647059,733.705882 Z M1016.47059,507.823529 L1016.47059,620.764706 L338.823529,620.764706 L338.823529,507.823529 L1016.47059,507.823529 Z M1355.29412,733.705882 L1355.29412,169 L-2.5243549e-29,169 L-2.5243549e-29,1750.17647 L1920,1750.17647 L1920,733.705882 L1355.29412,733.705882 Z M1185.88235,1637.23529 C967.905882,1637.23529 790.588235,1459.91765 790.588235,1241.94118 C790.588235,1023.96471 967.905882,846.647059 1185.88235,846.647059 C1403.85882,846.647059 1581.17647,1023.96471 1581.17647,1241.94118 C1581.17647,1459.91765 1403.85882,1637.23529 1185.88235,1637.23529 L1185.88235,1637.23529 Z M1129.41176,965.325647 L1129.41176,1273.99388 L1340.61176,1477.62682 C1296.11294,1506.99153 1243.03059,1524.27153 1185.88235,1524.27153 C1030.13647,1524.27153 903.529412,1397.66447 903.529412,1241.91859 C903.529412,1105.59859 1000.65882,991.528 1129.41176,965.325647 L1129.41176,965.325647 Z M1242.35294,965.325647 C1371.10588,991.528 1468.23529,1105.59859 1468.23529,1241.91859 C1468.23529,1299.63153 1450.72941,1353.39153 1420.8,1398.11624 L1420.8,1398.11624 L1242.35294,1225.99388 Z M1468.23529,185.873412 C1468.23529,185.873412 1889.39294,581.280471 1903.17176,620.809882 L1903.17176,620.809882 L1468.23529,620.809882 Z" stroke="none" stroke-width="1" fill-rule="evenodd"/>
</svg>

<svg viewBox="0 0 1920 1920" xmlns="http://www.w3.org/2000/svg">
    <path d="M677.647 733.706v112.941H338.824V733.706h338.823Zm338.824-225.882v112.94H338.824v-112.94h677.647Zm338.823 225.882V169H0v1581.176h1920V733.706h-564.706Zm-169.412 903.53c-217.976 0-395.294-177.318-395.294-395.295 0-217.976 177.318-395.294 395.294-395.294 217.977 0 395.294 177.318 395.294 395.294 0 217.977-177.317 395.294-395.294 395.294Zm-56.47-671.91v308.668l211.2 203.633c-44.5 29.365-97.581 46.645-154.73 46.645-155.746 0-282.353-126.608-282.353-282.353 0-136.32 97.13-250.391 225.883-276.593Zm112.94 0c128.754 26.202 225.883 140.273 225.883 276.593 0 57.713-17.506 111.473-47.435 156.197l-178.447-172.122Zm225.883-779.453s421.158 395.407 434.937 434.937h-434.937Z" fill-rule="evenodd"/>
</svg>
